packages/website/static/img/logos/remix.svg

<svg fill="none" height="40" viewBox="0 0 40 40" width="40" xmlns="http://www.w3.org/2000/svg"><path d="m0 0h40v40h-40z" fill="#fff"/><g fill="#121212"><path clip-rule="evenodd" d="m33.8588 29.1581c.3055 3.919.3055 5.7561.3055 7.7614h-9.0789c0-.4368.0078-.8364.0157-1.2415.0246-1.2596.0503-2.573-.1541-5.2255-.27-3.8833-1.9443-4.7462-5.0229-4.7462h-2.7276-11.55148v-7.0654h14.71108c3.8888 0 5.8332-1.1815 5.8332-4.3097 0-2.7506-1.9444-4.41751-5.8332-4.41751h-14.71108v-6.91369h16.33148c8.8037 0 13.1785 4.15293 13.1785 10.7868 0 4.962-3.0786 8.198-7.2374 8.7374 3.5107.7011 5.5631 2.6967 5.9412 6.6339z" fill-rule="evenodd"/><path d="m5.64502 36.9195v-5.267h9.59948c1.6035 0 1.9516 1.1878 1.9516 1.8961v3.3709z"/></g></svg>

<svg width="40" height="40" viewBox="0 0 40 40" fill="none" xmlns="http://www.w3.org/2000/svg">
<rect width="40" height="40" fill="white"/>
<path fill-rule="evenodd" clip-rule="evenodd" d="M33.8588 29.1581C34.1643 33.0771 34.1643 34.9142 34.1643 36.9195H25.0854C25.0854 36.4827 25.0932 36.0831 25.1011 35.678C25.1257 34.4184 25.1514 33.105 24.947 30.4525C24.677 26.5692 23.0027 25.7063 19.9241 25.7063H17.1965H5.64502V18.6409H20.3561C24.2449 18.6409 26.1893 17.4594 26.1893 14.3312C26.1893 11.5806 24.2449 9.91369 20.3561 9.91369H5.64502V3H21.9765C30.7802 3 35.155 7.15293 35.155 13.7868C35.155 18.7488 32.0764 21.9848 27.9176 22.5242C31.4283 23.2253 33.4807 25.2209 33.8588 29.1581Z" fill="#121212"/>
<path d="M5.64502 36.9195V31.6525H15.2445C16.848 31.6525 17.1961 32.8403 17.1961 33.5486V36.9195H5.64502Z" fill="#121212"/>
</svg>
